src/assets/svg/icons/fa/nuevos/classic/duotone/kiwi-fruit classic duotone.svg

<svg xmlns="http://www.w3.org/2000/svg" viewBox="0 0 448 512"><defs><style>.fa-secondary{opacity:.4}</style></defs><path class="fa-primary" d="M224 320c-123.7 0-224-64.47-224-144V256c0 123.7 100.3 224 224 224s224-100.3 224-224V176C448 255.5 347.7 320 224 320zM224 120c8.844 0 16-7.156 16-16V80C240 71.16 232.8 64 224 64S208 71.16 208 80v24C208 112.8 215.2 120 224 120zM320 176C320 184.8 327.2 192 336 192h32C376.8 192 384 184.8 384 176S376.8 160 368 160h-32C327.2 160 320 167.2 320 176zM304 136c4.094 0 8.188-1.562 11.31-4.688l16-16c6.25-6.25 6.25-16.38 0-22.62s-16.38-6.25-22.62 0l-16 16c-6.25 6.25-6.25 16.38 0 22.62C295.8 134.4 299.9 136 304 136zM308.7 259.3C311.8 262.4 315.9 264 320 264s8.188-1.562 11.31-4.688c6.25-6.25 6.25-16.38 0-22.62l-16-16c-6.25-6.25-16.38-6.25-22.62 0s-6.25 16.38 0 22.62L308.7 259.3zM80 192h32C120.8 192 128 184.8 128 176S120.8 160 112 160h-32C71.16 160 64 167.2 64 176S71.16 192 80 192zM224 288c8.844 0 16-7.156 16-16V248c0-8.844-7.156-16-16-16s-16 7.156-16 16V272C208 280.8 215.2 288 224 288zM132.7 220.7l-16 16c-6.25 6.25-6.25 16.38 0 22.62C119.8 262.4 123.9 264 128 264s8.188-1.562 11.31-4.688l16-16c6.25-6.25 6.25-16.38 0-22.62S138.9 214.4 132.7 220.7zM132.7 131.3C135.8 134.4 139.9 136 144 136s8.188-1.562 11.31-4.688c6.25-6.25 6.25-16.38 0-22.62l-16-16c-6.25-6.25-16.38-6.25-22.62 0s-6.25 16.38 0 22.62L132.7 131.3z"/><path class="fa-secondary" d="M224 32C100.3 32 0 96.47 0 176S100.3 320 224 320s224-64.47 224-144S347.7 32 224 32zM292.7 108.7l16-16c6.25-6.25 16.38-6.25 22.62 0s6.25 16.38 0 22.62l-16 16C312.2 134.4 308.1 136 304 136s-8.188-1.562-11.31-4.688C286.4 125.1 286.4 114.9 292.7 108.7zM208 80C208 71.16 215.2 64 224 64s16 7.156 16 16v24c0 8.844-7.156 16-16 16s-16-7.156-16-16V80zM64 176C64 167.2 71.16 160 80 160h32C120.8 160 128 167.2 128 176S120.8 192 112 192h-32C71.16 192 64 184.8 64 176zM155.3 243.3l-16 16C136.2 262.4 132.1 264 128 264S119.8 262.4 116.7 259.3c-6.25-6.25-6.25-16.38 0-22.62l16-16c6.25-6.25 16.38-6.25 22.62 0S161.6 237.1 155.3 243.3zM155.3 131.3C152.2 134.4 148.1 136 144 136S135.8 134.4 132.7 131.3l-16-16c-6.25-6.25-6.25-16.38 0-22.62s16.38-6.25 22.62 0l16 16C161.6 114.9 161.6 125.1 155.3 131.3zM240 272C240 280.8 232.8 288 224 288S208 280.8 208 272V248c0-8.844 7.156-16 16-16s16 7.156 16 16V272zM224 203c-30.93 0-56-12.09-56-27S193.1 149 224 149S280 161.1 280 176S254.9 203 224 203zM331.3 259.3C328.2 262.4 324.1 264 320 264s-8.188-1.562-11.31-4.688l-16-16c-6.25-6.25-6.25-16.38 0-22.62s16.38-6.25 22.62 0l16 16C337.6 242.9 337.6 253.1 331.3 259.3zM368 192h-32C327.2 192 320 184.8 320 176S327.2 160 336 160h32C376.8 160 384 167.2 384 176S376.8 192 368 192z"/></svg>

<svg xmlns="http://www.w3.org/2000/svg" viewBox="0 0 448 512"><!--! Font Awesome Pro 6.4.0 by @fontawesome - https://fontawesome.com License - https://fontawesome.com/license (Commercial License) Copyright 2023 Fonticons, Inc. --><defs><style>.fa-secondary{opacity:.4}</style></defs><path class="fa-primary" d="M224 64c-8.8 0-16 7.2-16 16v24c0 8.8 7.2 16 16 16s16-7.2 16-16V80c0-8.8-7.2-16-16-16zM64 176c0 8.8 7.2 16 16 16h32c8.8 0 16-7.2 16-16s-7.2-16-16-16H80c-8.8 0-16 7.2-16 16zm256 0c0 8.8 7.2 16 16 16h32c8.8 0 16-7.2 16-16s-7.2-16-16-16H336c-8.8 0-16 7.2-16 16zm-96 56c-8.8 0-16 7.2-16 16v24c0 8.8 7.2 16 16 16s16-7.2 16-16V248c0-8.8-7.2-16-16-16zM116.7 92.7c-6.2 6.2-6.2 16.4 0 22.6l16 16c6.2 6.2 16.4 6.2 22.6 0s6.2-16.4 0-22.6l-16-16c-6.2-6.2-16.4-6.2-22.6 0zm192 0l-16 16c-6.2 6.2-6.2 16.4 0 22.6s16.4 6.2 22.6 0l16-16c6.2-6.2 6.2-16.4 0-22.6s-16.4-6.2-22.6 0zm-153.4 128c-6.2-6.2-16.4-6.2-22.6 0l-16 16c-6.2 6.2-6.2 16.4 0 22.6s16.4 6.2 22.6 0l16-16c6.2-6.2 6.2-16.4 0-22.6zm137.4 0c-6.2 6.2-6.2 16.4 0 22.6l16 16c6.2 6.2 16.4 6.2 22.6 0s6.2-16.4 0-22.6l-16-16c-6.2-6.2-16.4-6.2-22.6 0zM224 480c123.7 0 224-100.3 224-224V176c0 79.5-100.3 144-224 144S0 255.5 0 176v80C0 379.7 100.3 480 224 480z"/><path class="fa-secondary" d="M224 320c123.7 0 224-64.5 224-144S347.7 32 224 32S0 96.5 0 176s100.3 144 224 144zM240 80v24c0 8.8-7.2 16-16 16s-16-7.2-16-16V80c0-8.8 7.2-16 16-16s16 7.2 16 16zM80 160h32c8.8 0 16 7.2 16 16s-7.2 16-16 16H80c-8.8 0-16-7.2-16-16s7.2-16 16-16zm256 0h32c8.8 0 16 7.2 16 16s-7.2 16-16 16H336c-8.8 0-16-7.2-16-16s7.2-16 16-16zm-96 88v24c0 8.8-7.2 16-16 16s-16-7.2-16-16V248c0-8.8 7.2-16 16-16s16 7.2 16 16zM116.7 92.7c6.2-6.2 16.4-6.2 22.6 0l16 16c6.2 6.2 6.2 16.4 0 22.6s-16.4 6.2-22.6 0l-16-16c-6.2-6.2-6.2-16.4 0-22.6zm192 0c6.2-6.2 16.4-6.2 22.6 0s6.2 16.4 0 22.6l-16 16c-6.2 6.2-16.4 6.2-22.6 0s-6.2-16.4 0-22.6l16-16zm-153.4 128c6.2 6.2 6.2 16.4 0 22.6l-16 16c-6.2 6.2-16.4 6.2-22.6 0s-6.2-16.4 0-22.6l16-16c6.2-6.2 16.4-6.2 22.6 0zm137.4 0c6.2-6.2 16.4-6.2 22.6 0l16 16c6.2 6.2 6.2 16.4 0 22.6s-16.4 6.2-22.6 0l-16-16c-6.2-6.2-6.2-16.4 0-22.6zM224 200c-30.9 0-56-10.7-56-24s25.1-24 56-24s56 10.7 56 24s-25.1 24-56 24z"/></svg>
